X:91
T:Lord Stranger’s March. JJo.091
S:J.Jones MS,1801,N.Shrops.
A:N Shropshire
Z:Neil Brookes 2006
M:4/4
L:1/8
Q:1/4=160
K:F
f2f>ff2 af|c’2c’>c'”^cr in MS”c’3b|a>ga>b a>c’b>a|g2g>gg2z2|!
f2f>ff2 af|c’2c’>c'”^cr in MS”c’3b|a>ga>b a2g2|f2f>ff2″_no rest in MS”z2::!
g2g>g gabg|f2afg2c2|g2g>g gabg|a2gfg2z2|!
f2f>ff2 af|c’2c’>c'”^cr in MS”c’3b|a>ga>b a2g2|f2f>ff2″_no rest in MS”z2:|

